X: 24771
T: Mag Long's
R: jig
M: 6/8
K: Gmajor
|:~G3 G2B|ABA DFA|ded cBA|~G3 AFD|~G3 G2B|
[1ABA A2g|fed cAF|GAF G2D:|2 ABA ABc|ded cBA|~G3 GBd||
~|:g3 gfe|~f3 fed|e2d efg|eag fed|gdB Bcd|
[1ecA ABc|ded cBA|~G3 GBd:|2 ecA A2g|fed cAF|GDB, G,2D||

